!!!!SEGMENT: Snf0106-Beati_omnes_qui_timent_Dominum_II.krn
!!!id: Snf0106
!!!AGN: Motet
!!!SCT: Edwards, Gasch, Tröster (2021)
!!!voices: 4
!!!COM: Ludwig Senfl
!!!OTL: Beati omnes qui timent Dominum II
**kern	**text	**kern	**text	**kern	**text	**kern	**text
*part4	*part4	*part3	*part3	*part2	*part2	*part1	*part1
*staff4	*staff4	*staff3	*staff3	*staff2	*staff2	*staff1	*staff1
*I"Bassus	*	*I"Tenor	*	*I"Altus	*	*I"Superius	*
*I'B	*	*I'T	*	*I'A	*	*I'S	*
*clefF4	*	*clefGv2	*	*clefG2	*	*clefG2	*
*	*	*	*	*	*	*	*
*k[]	*	*k[]	*	*k[]	*	*k[]	*
*	*	*	*	*	*	*	*
*M2/1	*	*M2/1	*	*M2/1	*	*M2/1	*
*met(C)	*	*met(C)	*	*met(C)	*	*met(C)	*
!!section: Prima pars: Beati omnes qui timent Dominum
!!!OMD: Prima pars: Beati omnes qui timent Dominum
=1	=1	=1	=1	=1	=1	=1	=1
0r	.	0r	.	1r	.	1a	Be-
.	.	.	.	1a	Be-	1a	-a-
=2	=2	=2	=2	=2	=2	=2	=2
0r	.	0r	.	1a	-a-	1d	-ti
.	.	.	.	1d	-ti	1dd	o-
=3	=3	=3	=3	=3	=3	=3	=3
0r	.	0r	.	1f	o-	2cc	-mnes
.	.	.	.	.	.	2a	qui
.	.	.	.	1e	-mnes	2b	ti-
.	.	.	.	.	.	2cc	-ment
=4	=4	=4	=4	=4	=4	=4	=4
0r	.	0r	.	2r	.	1dd	Do-
.	.	.	.	2d	qui	.	.
.	.	.	.	2e	ti-	2.cc	.
.	.	.	.	2f	-ment	.	.
.	.	.	.	.	.	8bL	.
.	.	.	.	.	.	8aJ	.
=5	=5	=5	=5	=5	=5	=5	=5
0r	.	0r	.	2.g	Do-	1.b	.
.	.	.	.	4f	.	.	.
.	.	.	.	4e	.	.	.
.	.	.	.	4d	.	.	.
.	.	.	.	[2e	.	2b	-mi-
=6	=6	=6	=6	=6	=6	=6	=6
0r	.	0r	.	2e]	.	1b	-num,
.	.	.	.	2e	-mi-	.	.
.	.	.	.	1e	-num,	2r	.
.	.	.	.	.	.	2g	qui
=7	=7	=7	=7	=7	=7	=7	=7
0r	.	0r	.	2r	.	1a	am-
.	.	.	.	2c	qui	.	.
.	.	.	.	1d	am-	1b	-bu-
=8	=8	=8	=8	=8	=8	=8	=8
0r	.	0r	.	1e	-bu-	1cc	-lant
.	.	.	.	2f	-lant	1a	in
.	.	.	.	2d	in	.	.
=9	=9	=9	=9	=9	=9	=9	=9
0r	.	0r	.	1.a	vi-	2.cc	vi-
.	.	.	.	.	.	4b	.
.	.	.	.	.	.	4cc	.
.	.	.	.	.	.	4dd	.
.	.	.	.	2g	.	[2ee	-is
=10	=10	=10	=10	=10	=10	=10	=10
1r	.	1A	Be-	2a	.	4ee]	.
.	.	.	.	.	.	4dd	.
.	.	.	.	2f	-is	1dd	e-
1A	Be-	1A	-a-	1e	e-	.	.
.	.	.	.	.	.	2cc#i	.
=11	=11	=11	=11	=11	=11	=11	=11
1A	-a-	1D	-ti	1d	-ius,	0dd	-ius,
1D	-ti	1d	o-	2r	.	.	.
.	.	.	.	2a	qui	.	.
=12	=12	=12	=12	=12	=12	=12	=12
1F	o-	2c	-mnes	2a	am-	0r	.
.	.	2A	qui	2a	-bu-	.	.
1E	-mnes	2B	ti-	1g	-lant	.	.
.	.	2c	-ment	.	.	.	.
=13	=13	=13	=13	=13	=13	=13	=13
2r	.	1d	Do-	1f	in	0r	.
2D	qui	.	.	.	.	.	.
2E	ti-	2.c	.	1e	vi-	.	.
2F	-ment	.	.	.	.	.	.
.	.	8BL	.	.	.	.	.
.	.	8AJ	.	.	.	.	.
=14	=14	=14	=14	=14	=14	=14	=14
2.G	Do-	1.B	.	1d	-is	0r	.
4F	.	.	.	.	.	.	.
4E	.	.	.	[1g	e-	.	.
4D	.	.	.	.	.	.	.
[2E	.	2B	-mi-	.	.	.	.
=15	=15	=15	=15	=15	=15	=15	=15
2E]	.	1B	-num,	0g]	.	1b	qui
2E	-mi-	.	.	.	.	.	.
1E	-num,	2r	.	.	.	[1ee	am-
.	.	2G	qui	.	.	.	.
=16	=16	=16	=16	=16	=16	=16	=16
2r	.	1A	am-	1e	-ius.	2ee]	.
2C	qui	.	.	.	.	2ee	-bu-
1D	am-	1B	-bu-	1r	.	1dd	-lant
=17	=17	=17	=17	=17	=17	=17	=17
1E	-bu-	1c	-lant	0r	.	1g	in
2F	-lant	1A	in	.	.	1a	vi-
2D	in	.	.	.	.	.	.
=18	=18	=18	=18	=18	=18	=18	=18
1.A	vi-	2.c	vi-	0r	.	2a	-is
.	.	.	.	.	.	1cc	e-
.	.	4B	.	.	.	.	.
.	.	4c	.	.	.	.	.
.	.	4d	.	.	.	.	.
2G	.	[2e	-is	.	.	2b	.
=19	=19	=19	=19	=19	=19	=19	=19
2A	.	2e]	.	0r	.	1a	.
2F	.	1d	e-	.	.	.	.
1E	-is	.	.	.	.	1g	-ius.
.	.	2c#i	.	.	.	.	.
=20	=20	=20	=20	=20	=20	=20	=20
0D	e-	0d	-ius.	1a	La-	0r	.
.	.	.	.	2a	-bo-	.	.
.	.	.	.	2a	-res	.	.
=21	=21	=21	=21	=21	=21	=21	=21
1G	-ius.	0r	.	1g	ma-	2r	.
.	.	.	.	.	.	2dd	La-
1D	.	.	.	1f	-nu-	2dd	-bo-
.	.	.	.	.	.	2dd	-res
=22	=22	=22	=22	=22	=22	=22	=22
0r	.	0r	.	2e	-um	1cc	ma-
.	.	.	.	2f	tu-	.	.
.	.	.	.	2.d	-a-	2b	-nu-
.	.	.	.	.	.	2b	-um
.	.	.	.	4e	.	.	.
=23	=23	=23	=23	=23	=23	=23	=23
0r	.	2r	.	4f	.	2a	tu-
.	.	.	.	4g	.	.	.
.	.	2c	La-	1a	.	2cc	.
.	.	2d	-bo-	.	.	1b	-a-
.	.	2e	-res	2g#i	.	.	.
=24	=24	=24	=24	=24	=24	=24	=24
2r	.	1.f	ma-	1a	-rum	0a	-rum
2d	La-	.	.	.	.	.	.
2d	-bo-	.	.	1r	.	.	.
2d	-res	2f	-nu-	.	.	.	.
=25	=25	=25	=25	=25	=25	=25	=25
1c	ma-	1e	-um	0r	.	0r	.
1B	-nu-	2.d	tu-	.	.	.	.
.	.	4e	.	.	.	.	.
=26	=26	=26	=26	=26	=26	=26	=26
2A	-um	4f	.	0r	.	0r	.
.	.	8eL	.	.	.	.	.
.	.	8fJ	.	.	.	.	.
2B	tu-	2.g	.	.	.	.	.
2.G	-a-	.	.	.	.	.	.
.	.	4f	.	.	.	.	.
.	.	[2d	.	.	.	.	.
4A	.	.	.	.	.	.	.
=27	=27	=27	=27	=27	=27	=27	=27
4B	.	4d]	.	1r	.	0r	.
4c	.	4e	.	.	.	.	.
1d	.	2f	.	.	.	.	.
.	.	1e	-a-	1e	qui-	.	.
2c#i	.	.	.	.	.	.	.
=28	=28	=28	=28	=28	=28	=28	=28
0d	-rum	0d	-rum	1.f	-a	1a	qui-
.	.	.	.	.	.	1a	-a
.	.	.	.	2f	man-	.	.
=29	=29	=29	=29	=29	=29	=29	=29
0r	.	1r	.	2e	-du-	2g	man-
.	.	.	.	2d	.	2f	-du-
.	.	1c	qui-	1e	-ca-	1g	-ca-
=30	=30	=30	=30	=30	=30	=30	=30
1D	qui-	0f	-a	0d	-bis,	[0a	-bis,
1d	-a	.	.	.	.	.	.
=31	=31	=31	=31	=31	=31	=31	=31
2A	man-	2e	man-	0r	.	0a_	.
2d	-du-	2d	-du-	.	.	.	.
1c	-ca-	1e	-ca-	.	.	.	.
=32	=32	=32	=32	=32	=32	=32	=32
1d	-bis,	0d	-bis,	0r	.	0a]	.
1r	.	.	.	.	.	.	.
=33	=33	=33	=33	=33	=33	=33	=33
1d	be-	2r	.	0a	be-	1r	.
.	.	2f	be-	.	.	.	.
[1d	-a-	[1f	-a-	.	.	1dd	be-
=34	=34	=34	=34	=34	=34	=34	=34
1d]	.	1f]	.	[0a	-a-	1dd	-a-
1d	-tus	1f	-tus	.	.	1dd	-tus
=35	=35	=35	=35	=35	=35	=35	=35
1A	es,	[0e	es,	1a]	.	0cc	es,
1A	et	.	.	1a	-tus	.	.
=36	=36	=36	=36	=36	=36	=36	=36
1.c	be-	0e]	.	2g	es,	0r	.
.	.	.	.	2g	et	.	.
.	.	.	.	[1cc	be-	.	.
2B	-ne	.	.	.	.	.	.
=37	=37	=37	=37	=37	=37	=37	=37
2A	ti-	0r	.	2cc]	.	0r	.
2G	-bi	.	.	2b	-ne	.	.
2F	e-	.	.	2a	ti-	.	.
2E	.	.	.	2g	-bi	.	.
=38	=38	=38	=38	=38	=38	=38	=38
2D	-rit,	1r	.	2f	e-	0r	.
1d	e-	.	.	2d	.	.	.
.	.	1A	et	1e	.	.	.
2c#i	.	.	.	.	.	.	.
=39	=39	=39	=39	=39	=39	=39	=39
0d	.	1f	be-	0d	-rit.	0r	.
.	.	1f	-ne	.	.	.	.
=40	=40	=40	=40	=40	=40	=40	=40
[0A	.	2e	ti-	0r	.	1.cc	et
.	.	1a	.	.	.	.	.
.	.	2g	-bi	.	.	2b	.
=41	=41	=41	=41	=41	=41	=41	=41
0A_	.	2f	e-	0r	.	2a	be-
.	.	4e	.	.	.	4g	.
.	.	4d	.	.	.	4f	.
.	.	2c	.	.	.	2e	-ne
.	.	[2a	.	.	.	[2ee	ti-
=42	=42	=42	=42	=42	=42	=42	=42
0A]	.	2a]	.	[0a	U-	4ee]	.
.	.	.	.	.	.	4dd	-bi
.	.	2f	.	.	.	1dd	e-
.	.	1e	.	.	.	.	.
.	.	.	.	.	.	2cc#i	.
=43	=43	=43	=43	=43	=43	=43	=43
0D	-rit.	[0d	-rit.	0a]	.	[0dd	-rit.
=44	=44	=44	=44	=44	=44	=44	=44
1r	.	0d]	.	0a	-xor	0dd]	.
1D	U-	.	.	.	.	.	.
=45	=45	=45	=45	=45	=45	=45	=45
1G	-xor	1r	.	0b	tu-	1r	.
1G	tu-	1d	U-	.	.	1dd	U-
=46	=46	=46	=46	=46	=46	=46	=46
0D	-a	1f	-xor	[0a	-a	1dd	-xor
.	.	1f	tu-	.	.	1dd	tu-
=47	=47	=47	=47	=47	=47	=47	=47
0A	sic-	1e	-a	0a_	.	1cc	-a
.	.	2r	.	.	.	1cc	sic-
.	.	[2e	sic-	.	.	.	.
=48	=48	=48	=48	=48	=48	=48	=48
1A	-ut	2e]	.	0a]	.	1cc	-ut
.	.	2e	-ut	.	.	.	.
1A	vi-	2e	vi-	.	.	1cc	vi-
.	.	2c	-tis	.	.	.	.
=49	=49	=49	=49	=49	=49	=49	=49
2G	-tis	2d	a-	0r	.	2b	-tis
2F	a-	2f	-bun-	.	.	2a	a-
1G	-bun-	2e	.	.	.	1b	-bun-
.	.	[2d	-dans,	.	.	.	.
=50	=50	=50	=50	=50	=50	=50	=50
2.F	.	2d]	.	1.cc	sic-	[0a	-dans …
.	.	4c	.	.	.	.	.
4G	.	4B	.	.	.	.	.
4A	.	2c	.	.	.	.	.
4B	.	.	.	.	.	.	.
2c	.	2F	.	2cc	-ut	.	.
=51	=51	=51	=51	=51	=51	=51	=51
2A	.	2c	.	0cc	vi-	0a]	.
2.c	.	4F	a-	.	.	.	.
.	.	4G	.	.	.	.	.
.	.	4A	.	.	.	.	.
4B	.	4B	.	.	.	.	.
2A	.	4c	.	.	.	.	.
.	.	4d	.	.	.	.	.
=52	=52	=52	=52	=52	=52	=52	=52
2G	.	2e	.	2b	-tis	0r	.
2F	.	1f	-bun-	2a	a-	.	.
1G	.	.	.	1b	-bun-	.	.
.	.	2e	.	.	.	.	.
=53	=53	=53	=53	=53	=53	=53	=53
[0F	-dans	1f	-dans	[0a	-dans …	0r	.
.	.	1r	.	.	.	.	.
=54	=54	=54	=54	=54	=54	=54	=54
0F]	.	2.A	in	0a]	.	0r	.
.	.	4A	la-	.	.	.	.
.	.	2A	-te-	.	.	.	.
.	.	2A	-ri-	.	.	.	.
=55	=55	=55	=55	=55	=55	=55	=55
2.D	in	0f	-bus	0r	.	0r	.
4D	la-	.	.	.	.	.	.
2D	-te-	.	.	.	.	.	.
2D	-ri-	.	.	.	.	.	.
=56	=56	=56	=56	=56	=56	=56	=56
0A	-bus	2e	do-	0r	.	0r	.
.	.	2c	-mus	.	.	.	.
.	.	1f	tu-	.	.	.	.
=57	=57	=57	=57	=57	=57	=57	=57
2G	do-	2e	.	0r	.	2r	.
2F	-mus	1d	.	.	.	2a	Fi-
1E	tu-	.	.	.	.	2g	-li-
.	.	2c#i	.	.	.	2e	-i
=58	=58	=58	=58	=58	=58	=58	=58
2D	.	1d	-ae. …	2r	.	1f	tu-
1d	.	.	.	2a	Fi-	.	.
.	.	1r	.	2g	-li-	1e	-i
2c#i	.	.	.	2e	-i	.	.
=59	=59	=59	=59	=59	=59	=59	=59
1d	-ae. …	0r	.	1f	tu-	2r	.
.	.	.	.	.	.	2a	sic-
1r	.	.	.	1e	-i	2g	-ut
.	.	.	.	.	.	2cc	no-
=60	=60	=60	=60	=60	=60	=60	=60
0r	.	0r	.	2r	.	1b	-vel-
.	.	.	.	2d	sic-	.	.
.	.	.	.	2c	-ut	1a	-lae
.	.	.	.	2f	no-	.	.
=61	=61	=61	=61	=61	=61	=61	=61
0r	.	0r	.	1e	-vel-	1cc	o-
.	.	.	.	2d	-lae	2b	-li-
.	.	.	.	2g	o-	2g	.
=62	=62	=62	=62	=62	=62	=62	=62
0r	.	0r	.	2f	-li-	1a	-va-
.	.	.	.	2d	.	.	.
.	.	.	.	1e	-va-	1g	-rum,
=63	=63	=63	=63	=63	=63	=63	=63
0r	.	0r	.	1d	-rum,	2r	.
.	.	.	.	.	.	2dd	in
.	.	.	.	2g	in	2dd	cir-
.	.	.	.	2g	cir-	[2dd	-cu-
=64	=64	=64	=64	=64	=64	=64	=64
0r	.	0r	.	2.g	-cu-	4dd]	.
.	.	.	.	.	.	4dd	-i-
.	.	.	.	.	.	2dd	-tu
.	.	.	.	4g	-i-	.	.
.	.	.	.	1a	-tu	1ff	men-
=65	=65	=65	=65	=65	=65	=65	=65
0r	.	0r	.	2g	men-	2ee	-sae
.	.	.	.	2f	-sae	1dd	tu-
.	.	.	.	1e	tu-	.	.
.	.	.	.	.	.	2cc#i	.
=66	=66	=66	=66	=66	=66	=66	=66
0r	.	0r	.	0d	-ae.	1dd	-ae.
.	.	.	.	.	.	1r	.
=67	=67	=67	=67	=67	=67	=67	=67
0A	Ec-	0e	Ec-	1r	.	0cc	Ec-
.	.	.	.	1a	Ec-	.	.
=68	=68	=68	=68	=68	=68	=68	=68
1A	-ce	1e	-ce	1a	-ce	1cc	-ce
1A	sic	1e	sic	1a	sic	1cc	sic
=69	=69	=69	=69	=69	=69	=69	=69
1.A	be-	1.e	be-	1.a	be-	1.cc	be-
2A	-ne-	2e	-ne-	2a	-ne-	2cc	-ne-
=70	=70	=70	=70	=70	=70	=70	=70
1A	-di-	1c	-di-	1e	-di-	1cc	-di-
1A	-ce-	1c	-ce-	1f	-ce-	1cc	-ce-
=71	=71	=71	=71	=71	=71	=71	=71
0G	-tur	0d	-tur	0g	-tur	0b	-tur
=72	=72	=72	=72	=72	=72	=72	=72
0G	ho-	0d	ho-	0g	ho-	0b	ho-
=73	=73	=73	=73	=73	=73	=73	=73
0D	-mo	[0d	-mo	[0f	-mo	[0a	-mo
=74	=74	=74	=74	=74	=74	=74	=74
0r	.	0d]	.	0f]	.	0a_	.
=75	=75	=75	=75	=75	=75	=75	=75
0A	qui	1r	.	0r	.	0a]	.
.	.	[1c	qui	.	.	.	.
=76	=76	=76	=76	=76	=76	=76	=76
1A	ti-	0c]	.	0r	.	0r	.
1A	-met	.	.	.	.	.	.
=77	=77	=77	=77	=77	=77	=77	=77
2.G	Do-	1d	ti-	0r	.	1r	.
4F	.	.	.	.	.	.	.
1E	.	1e	-met	.	.	1g	qui
=78	=78	=78	=78	=78	=78	=78	=78
0D	-mi-	1A	.	1f	qui	1a	ti-
.	.	[1d	Do-	2f	ti-	1a	-met
.	.	.	.	2f	-met	.	.
=79	=79	=79	=79	=79	=79	=79	=79
0G	.	2d]	.	1.g	Do-	1.b	Do-
.	.	2d	-mi-	.	.	.	.
.	.	[1dl	-num.	.	.	.	.
.	.	.	.	2f	-mi-	2a	-mi-
=	=	=	=	=	=	=	=
00D	-num.	00d]	.	00f	-num.	00a	-num.
=||	=||	=||	=||	=||	=||	=||	=||
*M2/1	*	*M2/1	*	*M2/1	*	*M2/1	*
*met(C|)	*	*met(C|)	*	*met(C|)	*	*met(C|)	*
!!section: Secunda pars: Benedicat tibi Dominus
!!!OMD: Secunda pars: Benedicat tibi Dominus
0D	Be-	0A	Be-	0d	Be-	0a	Be-
=80	=80	=80	=80	=80	=80	=80	=80
1D	-ne-	1d	-ne-	1f	-ne-	1a	-ne-
1D	-di-	1d	-di-	1f	-di-	1a	-di-
=81	=81	=81	=81	=81	=81	=81	=81
0A	-cat	0c	-cat	0e	-cat	0cc	-cat
=82	=82	=82	=82	=82	=82	=82	=82
1A	ti-	1c	ti-	1e	ti-	1cc	ti-
1A	-bi	1c	-bi	1e	-bi	1cc	-bi
=83	=83	=83	=83	=83	=83	=83	=83
1.F	Do-	1.A	Do-	1.f	Do-	1.cc	Do-
2F	-mi-	2A	-mi-	2f	-mi-	2cc	-mi-
=84	=84	=84	=84	=84	=84	=84	=84
1G	-nus	1B	-nus	2d	-nus	1b	-nus
.	.	.	.	2.e	ex	.	.
1E	ex	[1c	ex	.	.	1g	ex
.	.	.	.	4f	.	.	.
.	.	.	.	2g	.	.	.
=85	=85	=85	=85	=85	=85	=85	=85
0F	Si-	2c]	.	2f	.	0a	Si-
.	.	2B	.	1e	Si-	.	.
.	.	1A	Si-	.	.	.	.
.	.	.	.	2d	.	.	.
=86	=86	=86	=86	=86	=86	=86	=86
1E	-on,	0B	-on,	0e	-on,	1g	-on,
2r	.	.	.	.	.	1r	.
2G	et	.	.	.	.	.	.
=87	=87	=87	=87	=87	=87	=87	=87
2F	vi-	2r	.	0r	.	0r	.
2D	-de-	2d	et	.	.	.	.
1A	-as	2c	vi-	.	.	.	.
.	.	2A	-de-	.	.	.	.
=88	=88	=88	=88	=88	=88	=88	=88
2G	bo-	1e	-as	2r	.	1r	.
2E	-na	.	.	2g	et	.	.
2F	Je-	2d	bo-	2f	vi-	2r	.
2G	.	2B	-na	2d	-de-	2dd	et
=89	=89	=89	=89	=89	=89	=89	=89
1A	-ru-	2c	Je-	1a	-as	2cc	vi-
.	.	2d	.	.	.	2a	-de-
2.E	-sa-	1e	-ru-	[1g	bo-	1ee	-as
4F	.	.	.	.	.	.	.
=90	=90	=90	=90	=90	=90	=90	=90
1G	.	2.B	-sa-	1g]	.	0dd	bo-
.	.	4c	.	.	.	.	.
1D	-lem	1d	.	1f	-na	.	.
=91	=91	=91	=91	=91	=91	=91	=91
0r	.	1A	-lem	2e	Je-	1cc	-na
.	.	.	.	2c	.	.	.
.	.	1r	.	2d	-ru-	2b	Je-
.	.	.	.	2e	.	2g	.
=92	=92	=92	=92	=92	=92	=92	=92
1r	.	2r	.	1f	-sa-	2.a	-ru-
.	.	2d	o-	.	.	.	.
.	.	.	.	.	.	4b	.
2r	.	2c	-mni-	1e	-lem	2cc	.
2A	o-	2A	-bus	.	.	2cc	-sa-
=93	=93	=93	=93	=93	=93	=93	=93
2G	-mni-	2B	di-	1r	.	1b	-lem
2E	-bus	2G	-e-	.	.	.	.
2F	di-	1A	-bus	2r	.	1r	.
2D	-e-	.	.	2a	o-	.	.
=94	=94	=94	=94	=94	=94	=94	=94
1E	-bus	1r	.	2g	-mni-	2r	.
.	.	.	.	2e	-bus	2ee	o-
1r	.	2r	.	2f	di-	2dd	-mni-
.	.	2G	vi-	2d	-e-	2b	-bus
=95	=95	=95	=95	=95	=95	=95	=95
0r	.	2c	-tae	2e	-bus	2cc	di-
.	.	2d	.	2f	vi-	2a	-e-
.	.	1B	tu-	1g	-tae	2b	-bus
.	.	.	.	.	.	2dd	vi-
=96	=96	=96	=96	=96	=96	=96	=96
2r	.	1A	-ae.	0a	tu-	2.cc	-tae
2A	vi-	.	.	.	.	.	.
.	.	.	.	.	.	4dd	.
2c	.	1r	.	.	.	2ee	.
2d	-tae	.	.	.	.	[2ff	tu-
=97	=97	=97	=97	=97	=97	=97	=97
1B	tu-	1r	.	1d	-ae.	4ff]	.
.	.	.	.	.	.	4ee	.
.	.	.	.	.	.	1dd	.
1A	.	1e	Et	1r	.	.	.
.	.	.	.	.	.	2cc#i	.
=98	=98	=98	=98	=98	=98	=98	=98
1D	-ae.	1.f	vi-	[0a	Et	0dd	-ae.
1r	.	.	.	.	.	.	.
.	.	2f	-de-	.	.	.	.
=99	=99	=99	=99	=99	=99	=99	=99
0A	Et	0e	-as	0a]	.	1r	.
.	.	.	.	.	.	1cc	Et
=100	=100	=100	=100	=100	=100	=100	=100
1.B-X	vi-	0r	.	1.f	vi-	1.dd	vi-
2B-i	-de-	.	.	2g	-de-	2dd	-de-
=101	=101	=101	=101	=101	=101	=101	=101
0A	-as	1.e	fi-	[0a	-as	1cc	-as
.	.	.	.	.	.	1r	.
.	.	2e	-li-	.	.	.	.
=102	=102	=102	=102	=102	=102	=102	=102
1r	.	2c	-os	0a]	.	1r	.
.	.	2d	fi-	.	.	.	.
[1A	fi-	1e	-li-	.	.	[1cc	fi-
=103	=103	=103	=103	=103	=103	=103	=103
2A]	.	0f	-o-	1r	.	2cc]	.
2A	-li-	.	.	.	.	2cc	-li-
2.F	-os	.	.	[1a	fi-	2.a	-os
4G	.	.	.	.	.	4b	.
=104	=104	=104	=104	=104	=104	=104	=104
1A	fi-	1e	-rum	2a]	.	1cc	.
.	.	.	.	2a	-li-	.	.
1B-i	-li-	[1d	tu-	[1f	-os	2dd	fi-
.	.	.	.	.	.	2dd	-li-
=105	=105	=105	=105	=105	=105	=105	=105
1B-i	-o-	1d]	.	2f]	.	1dd	-o-
.	.	.	.	2g	fi-	.	.
2A	-rum	2e	-o-	1a	-li-	1cc	-rum
2F	tu-	2f	.	.	.	.	.
=106	=106	=106	=106	=106	=106	=106	=106
0G	-o-	[0d	-rum,	0b	-o-	0r	.
=107	=107	=107	=107	=107	=107	=107	=107
0D	-rum,	1d]	.	1a	-rum	1r	.
.	.	1r	.	1f	tu-	1a	tu-
=108	=108	=108	=108	=108	=108	=108	=108
0r	.	0G	pa-	0g	-o-	0b	-o-
=109	=109	=109	=109	=109	=109	=109	=109
0D	pa-	1.d	-cem	0f	-rum,	[0a	-rum,
.	.	2d	su-	.	.	.	.
=110	=110	=110	=110	=110	=110	=110	=110
1.A	-cem	2c	-per	0r	.	0a]	.
.	.	4A	Is-	.	.	.	.
.	.	4B	.	.	.	.	.
.	.	4c	.	.	.	.	.
.	.	4d	.	.	.	.	.
2A	su-	[2e	.	.	.	.	.
=111	=111	=111	=111	=111	=111	=111	=111
2G	-per	2e]	.	0r	.	1r	.
2F	.	2.d	.	.	.	.	.
2E	Is-	.	.	.	.	1g	pa-
.	.	4B	.	.	.	.	.
2E	-ra-	2c	.	.	.	.	.
=112	=112	=112	=112	=112	=112	=112	=112
1D	-el,	2.F	-ra-	0d	pa-	1.dd	-cem
.	.	4G	.	.	.	.	.
1r	.	[1A	-el	.	.	.	.
.	.	.	.	.	.	2dd	su-
=113	=113	=113	=113	=113	=113	=113	=113
0r	.	1A]	.	1.a	-cem	2cc	-per
.	.	.	.	.	.	4a	Is-
.	.	.	.	.	.	4b	.
.	.	2.A	Is-	.	.	4cc	.
.	.	.	.	.	.	4dd	.
.	.	.	.	2a	su-	[2ee	.
.	.	4B	.	.	.	.	.
=114	=114	=114	=114	=114	=114	=114	=114
0r	.	2c	.	2g	-per	2ee]	.
.	.	2d	.	2f	.	1dd	-ra-
.	.	1A	.	2e	Is-	.	.
.	.	.	.	2e	-ra-	2cc	-el,
=115	=115	=115	=115	=115	=115	=115	=115
0D	Is-	0d	.	1d	-el,	0ff	Is-
.	.	.	.	[1a	Is-	.	.
=116	=116	=116	=116	=116	=116	=116	=116
0A	.	0c	.	0a]	.	0ee	.
=117	=117	=117	=117	=117	=117	=117	=117
0B	-ra-	0d	-ra-	1f	-ra-	1.dd	-ra-
.	.	.	.	1g	.	.	.
.	.	.	.	.	.	4cc	.
.	.	.	.	.	.	4b	.
=118	=118	=118	=118	=118	=118	=118	=118
0A	.	0e	.	0a	.	0cc	.
=119	=119	=119	=119	=119	=119	=119	=119
00Dl	-el.	00dl	-el.	00al	-el.	00ddl	-el.
==	==	==	==	==	==	==	==
*-	*-	*-	*-	*-	*-	*-	*-
!!!system-decoration: [*]
!!!RDF**kern: i = editorial accidental
!!!RDF**kern: l = terminal long
!!!PTL: <i> New Senfl Edition: Motets for Four Voices (A-I) </i>
!!!PPR: Hollitzer Verlag
!!!PC#: Denkmäler der Tonkunst in Österreich 163.1
!!!PDT: 2021
!!!PED: Scott Lee Edwards, Stefan Gasch, and Sonja Tröster
!!!YEC: Copyright 2021 Denkmäler der Tonkunst in Österreich
!!!YEM: CC-BY-NC 4.0 (https://creativecommons.org/licenses/by-nc/4.0/legalcode)
!!!EED: Benjamin Ory
!!!EEV: 2023/11/27
!!!verovio: header true
!!!header-left: @{PTL}\n@{PED}, eds.\n@{PC#} (@{PDT})&nbsp;\n
!!!header-right:
!!!header-center:
